svgs/light/circle-radiation.svg

<svg xmlns="http://www.w3.org/2000/svg" viewBox="0 0 512 512"><!--! Font Awesome Pro 6.3.0 by @fontawesome - https://fontawesome.com License - https://fontawesome.com/license (Commercial License) Copyright 2023 Fonticons, Inc. --><path d="M306.3 295.6c-4.672-7.531-14.53-9.812-22.05-5.094c-7.484 4.688-9.766 14.53-5.078 22.03l41.83 66.97c1.234 2.031 .0156 3.312-.6875 3.781c-38.89 22.09-90.39 21.81-128.4 .1562c-.5625-.375-2.266-1.75-.9219-3.875l41.84-67.13c4.672-7.5 2.391-17.38-5.109-22.03c-7.516-4.719-17.39-2.406-22.05 5.094l-41.8 67.06c-5.094 8.062-6.688 17.44-4.516 26.34c2.25 9.188 8.359 17.47 16.48 22.22C199.9 424.9 227.6 432 256 432c28.19 0 55.88-7.167 80.14-20.92c7.891-4.5 14.02-12.62 16.36-21.72c2.297-8.906 .8125-18.31-4.281-26.66L306.3 295.6zM211.1 263.2C211.7 254.4 205.3 248.4 195.4 247.8L116.5 250.5c-2-.5625-2.859-1.656-2.938-2.469c.2031-22.31 6.297-44.47 17.62-64.09c11.39-19.72 27.52-36.09 46.38-47.13c.6406-.3438 2.719-1.094 3.891 1.125l37.22 69.78C222.9 215.5 232.5 218.5 240.3 214.3c7.797-4.156 10.75-13.84 6.594-21.66L209.7 122.1c-4.422-8.438-11.69-14.5-20.45-17.06C180.2 103.2 169.1 104.4 161.7 109C137.8 123.1 117.6 143.4 103.5 167.9c-14.08 24.41-21.66 52-21.91 79.91C81.55 256.1 85.53 266.3 92.23 272.9C98.58 279.1 107.1 282.5 116.5 282.5l80.03-2.75C205.4 279.4 212.3 272 211.1 263.2zM408.5 167.9c-14.09-24.41-34.2-44.75-58.27-58.94c-7.891-4.562-17.97-5.75-27.02-3.25c-8.828 2.469-16.22 8.438-20.91 17l-37.17 69.91c-4.156 7.781-1.188 17.47 6.609 21.62c7.812 4.188 17.5 1.188 21.64-6.625l37.08-69.72c1.188-2.125 3.078-1.531 3.625-1.312c19.22 11.34 35.36 27.69 46.69 47.31c11.39 19.75 17.48 41.91 17.62 63.75c-.0469 .6875 .6094 2.938-2.922 2.781l-79.06-2.656c-8 .75-16.22 6.625-16.52 15.47c-.2969 8.812 6.609 16.22 15.45 16.53c0 0 79.95 2.688 80.44 2.688c8.953 0 17.28-3.25 23.55-9.25c6.844-6.531 10.98-15.97 11.06-25.47C430.3 220.1 422.7 192.5 408.5 167.9zM256 16C123.5 16 16 123.4 16 256s107.5 240 240 240s240-107.4 240-240S388.5 16 256 16zM256 464c-114.7 0-208-93.31-208-208S141.3 48 256 48s208 93.31 208 208S370.7 464 256 464zM232 256c0 13.25 10.75 24 24 24S280 269.3 280 256c0-13.26-10.75-24-24-24S232 242.7 232 256z"/></svg>

<svg xmlns="http://www.w3.org/2000/svg" viewBox="0 0 512 512"><!-- Font Awesome Pro 6.0.0-alpha2 by @fontawesome - https://fontawesome.com License - https://fontawesome.com/license (Commercial License) --><path d="M306.281 295.625C301.609 288.094 291.75 285.812 284.234 290.531C276.75 295.219 274.469 305.062 279.156 312.562L320.984 379.531C322.219 381.562 321 382.844 320.297 383.312C281.406 405.406 229.906 405.125 191.938 383.469C191.375 383.094 189.672 381.719 191.016 379.594L232.859 312.469C237.531 304.969 235.25 295.094 227.75 290.437C220.234 285.719 210.359 288.031 205.703 295.531L163.906 362.594C158.813 370.656 157.219 380.031 159.391 388.937C161.641 398.125 167.75 406.406 175.875 411.156C199.938 424.875 227.641 432.125 256 432.125C284.188 432.125 311.875 424.875 336.141 411.125C344.031 406.625 350.156 398.5 352.5 389.406C354.797 380.5 353.312 371.094 348.219 362.75L306.281 295.625ZM211.969 263.188C211.672 254.375 205.281 248.375 195.422 247.75L116.5 250.5C114.5 249.938 113.641 248.844 113.562 248.031C113.766 225.719 119.859 203.563 131.187 183.938C142.578 164.219 158.703 147.844 177.562 136.813C178.203 136.469 180.281 135.719 181.453 137.938L218.672 207.719C222.859 215.5 232.484 218.469 240.328 214.312C248.125 210.156 251.078 200.469 246.922 192.656L209.734 122.969C205.312 114.531 198.047 108.469 189.281 105.906C180.234 103.188 169.984 104.375 161.656 109.031C137.75 123.062 117.625 143.406 103.469 167.938C89.391 192.344 81.812 219.938 81.562 247.844C81.547 256.969 85.531 266.312 92.234 272.875C98.578 279.094 107.109 282.5 116.516 282.5H117.438L196.547 279.75C205.375 279.438 212.281 272.031 211.969 263.188ZM408.531 167.938C394.438 143.531 374.328 123.188 350.266 109C342.375 104.438 332.297 103.25 323.25 105.75C314.422 108.219 307.031 114.188 302.344 122.75L265.172 192.656C261.016 200.438 263.984 210.125 271.781 214.281C279.594 218.469 289.281 215.469 293.422 207.656L330.5 137.938C331.688 135.813 333.578 136.406 334.125 136.625C353.344 147.969 369.484 164.313 380.812 183.938C392.203 203.688 398.297 225.844 398.437 247.688C398.391 248.375 399.047 250.625 395.516 250.469L316.453 247.813C308.453 248.563 300.234 254.438 299.937 263.281C299.641 272.094 306.547 279.5 315.391 279.813L394.359 282.469C394.844 282.469 395.344 282.5 395.828 282.5C404.781 282.5 413.109 279.25 419.375 273.25C426.219 266.719 430.359 257.281 430.437 247.781C430.266 220.094 422.688 192.5 408.531 167.938ZM256 16C123.461 16 16 123.42 16 256S123.461 496 256 496S496 388.58 496 256S388.539 16 256 16ZM256 464C141.309 464 48 370.691 48 256S141.309 48 256 48S464 141.309 464 256S370.691 464 256 464ZM232 256C232 269.254 242.746 280 256 280S280 269.254 280 256C280 242.744 269.254 232 256 232S232 242.744 232 256Z"/></svg>
